X:123
T:no name
R:polka
Z:id:hn-polka-123
M:2/4
L:1/8
K:A
f | ec BA/B/ | cA FA/F/ | EA BA/B/ | cB Bf |
ec BA/B/ | cA FA/F/ | EA BA/B/ |1 cA A :|2 cA A>B ||
|: ce a>a | ce f>f | ec BA/B/ | cB B2 |
ce a>a | ce f>f | ec BA/B/ |1 cA A>B :|2 cA A ||

